X:1
T:Aftenstemning (Grieg)
T:Aftenstemning (Grieg)
T:Edvard Grieg
C:Edvard Grieg
%%score [ 1 2 3 4 ]
L:1/8
Q:1/4=92
M:3/4
K:C
V:1 treble-8 nm="Tenor 1"
V:2 treble-8 nm="Tenor 2"
V:3 bass nm="Baryton"
V:4 bass nm="Bass"
V:1
"^Un poco Andante"!p! G | c3/2 c/ c2 d B | G3/2 E/ G!<(! (.G .A .B)!<)! | %3
w: 1.Nu|syn- ker Af- te- nen|sag- te ned med gyl- den|
w: 2.Se|fis- ker- baa- den hvor|slank og let, højt paa den|
w: 3.Men|sødt hen- sun- ken en|pi- ge staar og frem- ad|
w: 4.Du|ri- ge rød- men- de|Som- mer- nat, der e- jer|
 d2 c3/2 c/!>(! (3(ed) c!>)! | c2 B2 z!p! G | c3/2 c/ c2 d B | G3/2 E/ G!<(! (.G .A .B)!<)! | %7
w: Rød- me paa skov _ og|Li- er, og|lyd- løs Taus- hed og|yn- dig Fred til ro- lig|
w: glim- ren- de Fla- * de|baa- ren, hvor|Kar- len bøj- er sig|mod sit Net, mens stil- le|
w: ser i den kla- * re|Him- mel, mens|læng- sels- vakt hen- des|Tan- ke gaar til Ju- le-|
w: mer end de ly- * se|Da- ge, o.|bring den Fa- gre den|bed- ste Skat, lad Drøm- men|
 (ce) g!>(! ^f B3/2 ^d/!>)! | ^d2 e2 z2 | (3:2:2z2!p! d (3(de) f !>!a2 | g z (3:2:2z2 c (3(cd) _e | %11
w: Slum- * mer Na- tu- ren|vi- er.|De grøn- * ne Stra-|de sig stil- * le|
w: Pi- * ger- ne hol- ge|Aa- ren.|Den tau- * se Ta-|le fra Sø _ og|
w: le- * gen og Dan- sens|Vrim- mel.|Den rø- * de Lu-|e paa Aft- * nens|
w: kjær- * lig til hen- de|dra- ge!|Naar snart _ de lan-|de ved grøn- * ne|
 g2 f!<(! B ^A B!<)! | a2 g !>!e !>!^d !>!e |!f! (_b3!>(! a) f d!>)! | %14
w: blan- de i Sø- ens|Spejl med de blan- ke|Van- * de, der|
w: Da- le al Da- gens|hi- gen har kun- net|sva- * le, og|
w: Bu- e har kas- tet|Fun- ker, hun ej kan|sku- * e; hun|
w: Stran- de, læg Søl- ver-|kro- nen om hen- des|Pan- * de som|
!p!!<(! (c4!>(! e3/2) d/!<)!!>)! | c4 z |] %16
w: fan- * ge|dem.|
w: bin- * de|dem.|
w: stir- * rer|ud.|
w: sa- * lig|Brud!|
V:2
!p! G | G3/2 G/ G2 G G | G3/2 E/ G!<(! (.G .G .G)!<)! | G2 G3/2 G/!>(! (3:2:2^F2 G!>)! | %4
w: 1.Nu|syn- ker Af- te- nen|sag- te ned med gyl- den|Rød- me paa skov og|
w: 2.Se|fis- ker- baa- den hvor|slank og let, højt paa den|glim- ren- de Fla- de|
w: 3.Men|sødt hen- sun- ken en|pi- ge staar og frem- ad|ser i den kla- re|
w: 4.Du|ri- ge rød- men- de|Som- mer- nat, der e- jer|mer end de ly- se|
 G2 G2 z!p! G | G3/2 G/ G2 G G | G3/2 E/ G!<(! (.G .G .G)!<)! | c2 c!>(! c B3/2 A/!>)! | A2 G2 z2 | %9
w: Li- er, og|lyd- løs Taus- hed og|yn- dig Fred til ro- lig|Slum- mer Na- tu- ren|vi- er.|
w: baa- ren, hvor|Kar- len bøj- er sig|mod sit Net, mens stil- le|Pi- ger- ne hol- de|Aa- ren.|
w: Him- mel, mens|læng- sels- vakt hen- des|Tan- ke gaar til Ju- le-|le- gen og Dan- sens|Vrim- mel.|
w: Da- ge, o.|bring den Fa- gre den|bed- ste Skat, lad Drøm- men|kjær- lig til hen- de|dra- ge!|
 (3:2:2z2!p! B (3:2:2B2 B !>!B2 | c z (3:2:2z2 A (3:2:2A2 A | A2 _B!<(! =B ^A B!<)! | %12
w: De grøn- ne Stran-|de sig stil- le|blan- de i Sø- ens|
w: Den tau- se Ta-|le fra Sø og|Da- le al Da- gens|
w: Den rø- de Lu-|e paa Aft- nens|Bu- e har kas- tet|
w: Naar snart de lan-|de ved grøn- ne|Stran- de, læg Søl- ver-|
 d2 G !>!_B !>!B !>!B |!f! (e3!>(! f) d ^G!>)! |!p!!<(! (A4!>(! B3/2) B/!<)!!>)! | c4 z |] %16
w: Spejl med de blan- ke|Van- * de, der|fan- * ge|dem.|
w: hi- gen har kun- net|sva- * le, og|bin- * de|dem.|
w: Fun- ker, hun ej kan|sku- * e; hun|stir- * rer|ud.|
w: kro- nen om hen- des|Pan- * de som|sa- * lig|Brud!|
V:3
!p! G, | E,3/2 E,/ E,2 F, D, | E,3/2 C,/ E,!<(! (.E, .E, .E,)!<)! | %3
w: 1.Nu|syn- ker Af- te- nen|sag- te ned med gyl- den|
w: 2.Se|fis- ker- baa- den hvor|slank og let, højt paa den|
w: 3.Men|sødt hen- sun- ken en|pi- ge staar og frem- ad|
w: 4.Du|ri- ge rød- men- de|Som- mer- nat, der e- jer|
 E,2 E,3/2 E,/!>(! (3(C,D,) E,!>)! | E,2 D,2 z!p! G, | E,3/2 E,/ E,2 F, D, | %6
w: Rød- me paa skov _ og|Li- er, og|lyd- løs Taus- hed og|
w: glim- ren- de Fla- * de|baa- ren, hvor|Kar- len bøj- er sig|
w: ser i den kla- * re|Him- mel, mens|læng- sels- vakt hen- des|
w: mer end de ly- * se|Da- ge, o.|bring den Fa- gre den|
 E,3/2 C,/ E,!<(! (.E, .E, .E,)!<)! | (E,G,) B,!>(! A, G,3/2 ^F,/!>)! | ^F,2 E,2 z2 | %9
w: yn- dig Fred til ro- lig|Slum- * mer Na- tu- ren|vi- er.|
w: mod sit Net, mens stil- le|Pi- * ger- ne hol- ge|Aa- ren.|
w: Tan- ke gaar til Ju- le-|le- * gen og Dan- sens|Vrim- mel.|
w: bed- ste Skat, lad Drøm- men|kjær- * lig til hen- de|dra- ge!|
 (3:2:2z2!p! G, (3:2:2G,2 G, !>!G,2 | G, z (3:2:2z2 F, (3:2:2F,2 F, | F,2 F,!<(! G, G, G,!<)! | %12
w: De grøn- ne Stran-|de sig stil- le|blan- de i Sø- ens|
w: Den tau- se Ta-|le fra Sø og|Da- le al Da- gens|
w: Den rø- de Lu-|e paa Aft- *|Bu- e har kas- tet|
w: Naar snart de lan-|de ved grøn- ne|Stran- de, læg Søl- ver-|
 B,2 C !>!C !>!C !>!C |!f! (^C3!>(! D) A, F,!>)! |!p!!<(! (E,4!>(! G,3/2) F,/!<)!!>)! | E,4 z |] %16
w: Spejl med de blan- ke|Van- * de, der|fan- * ge|dem.|
w: hi- gen har kun- net|sva- * le, og|bin- * de|dem.|
w: Fun- ker, hun ej kan|sku- * e; hun|stir- * rer|ud.|
w: kro- nen om hen- des|Pan- * de som|sa- * lig|Brud!|
V:4
!p! G, | C,3/2 C,/ C,2 C, C, | C,3/2 C,/ C,!<(! (.C, .C, .B,,)!<)! | %3
w: 1.Nu|syn- ker Af- te- nen|sag- te ned med gyl- den|
w: 2.Se|fis- ker- baa- den hvor|slank og let, højt paa den|
w: 3.Men|sødt hen- sun- ken en|pi- ge staar og frem- ad|
w: 4.Du|ri- ge rød- men- de|Som- mer- nat, der e- jer|
 A,,2 A,,3/2 A,,/!>(! (3:2:2A,,2 A,,!>)! | G,,2 G,,2 z!p! G, | C,3/2 C,/ C,2 C, C, | %6
w: Rød- me paa skov og|Li- er, og|lyd- løs Taus- hed og|
w: glim- ren- de Fla- de|baa- ren, hvor|Kar- len bøj- er sig|
w: ser i den kla- re|Him- mel, mens|læng- sels- vakt hen- des|
w: mer end de ly- se|Da- ge, o.|bring den Fa- gre den|
 C,3/2 C,/ C,!<(! (.C, .C, .B,,)!<)! | A,,2 A,,!>(! A,, B,,3/2 B,,/!>)! | B,,2 E,2 z2 | %9
w: yn- dig Fred til ro- lig|Slum- mer Na- tu- ren|vi- er.|
w: mod sit Net, mens stil- le|Pi- ger- ne hol- de|Aa- ren.|
w: Tan- ke gaar til Ju- le-|le- gen og Dan- sens|Vrim- mel.|
w: bed- ste Skat, lad Drøm- men|kjær- lig til hen- de|dra- ge!|
 (3:2:2z2!p! F, (3(F,E,) D, !>!F,2 | E, z (3:2:2z2 E, (3(E,D,) C, | _E,2 D,!<(! D, ^C, D,!<)! | %12
w: De grøn- * ne Stra-|de sig stil- * le|blan- de i Sø- ens|
w: Den tau- * se Ta-|le fra Sø _ og|Da- le al Da- gens|
w: Den rø- * de Lu-|e paa Aft- * nens|Bu- e har kas- tet|
w: Naar snart _ de lan-|de ved grøn- * ne|Stran- de, læg Søl- ver-|
 F,2 E, !>!G, !>!G, !>!G, |!f! F,4!>(! F, F,,!>)! |!p!!<(! (A,,4!>(! G,,3/2) G,,/!<)!!>)! | %15
w: Spejl med de blan- ke|Van- de, der|fan- * ge|
w: hi- gen har kun- net|sva- le, og|bin- * de|
w: Fun- ker, hun ej kan|sku- e; hun|stir- * rer|
w: kro- nen om hen- des|Pan- de som|sa- * lig|
 C,4 z |] %16
w: dem.|
w: dem.|
w: ud.|
w: Brud!|

